!! 00000] TT[00
!! NN
!!!OTL: Shatian youzi man chuantou
!!!ARE: Asia, China,ÿGuangxi, Rongxian
!! Ethnic Group: Han
!! II, 521
!!!SCT: C0259
!!!YEM: Copyright 1995, estate of Helmut Schaffrath.
**kern
*ICvox
*Ivox
*M2/4
*k[f#c#g#]
*A:
{16b
16cc#
16b
16a
8f#
8a
=1
16cc#
16b
16a
16b
8.cc#
16b
=2
8.cc#
16b
4cc#}
=3
{16b
16cc#
16b
16a
8f#
8a
=4
16a
32f#
32a
16b
16a
8.f#
16e
=5
8.f#
16e
4f#}
=6
{16f#
16a
16f#
16a
4b
=7
8cc#
16f#
16b
4a}
=8
{16f#
16f#
16f#
16b
4a
=9
16f#
16f#
16f#
16b
4a}
=10
{8b
8cc#
16b
16cc#
8a
=11
8b
8f#
8b
8a}
=12
{8f#
8e
16e
16f#
8a
=13
8a
8f#
8cc#
8a
=14
16cc#
16b
16a
16cc#
4b}
=15
{16a
16b
8cc#
16b
16cc#
16b
16a
=16
4f#
16a
16f#
16b
16a
=17
16f#
8f#
16e
8.f#}
{16e
=18
8.f#
16e
8.f#
16e
=19
8f#
8cc#
8a
16b
16a
=20
16f#
8f#
16e
4f#}
==
!!!AGN: Wuge, Huachuan diao. Chuanyun shenghuo
!! prosaisches Volkslied, schon fast ein Schauspiel. Mit den Noten
!!    in Klammern wird singend der Klang von Instrumenten imitiert.
!!!ONB: ESAC (Essen Associative Code) Database: CHINA
!!!AMT: simple duple
!!!AIN: vox
!!!EED: Helmut Schaffrath
!!!EEV: 1.0
*-
